raw/spot/spot-server-error.svg

<svg width="80" height="80" viewBox="0 0 80 80" fill="none" xmlns="http://www.w3.org/2000/svg">
<path fill-rule="evenodd" clip-rule="evenodd" d="M64 37.9961C67.3137 37.9961 70 35.3098 70 31.9961V17.9961C70 14.6824 67.3137 11.9961 64 11.9961H10C6.68629 11.9961 4 14.6824 4 17.9961V31.9961C4 35.3098 6.68629 37.9961 10 37.9961H64Z" fill="#E3E7F5"/>
<path fill-rule="evenodd" clip-rule="evenodd" d="M64 70C67.3137 70 70 67.3137 70 64V50C70 46.6863 67.3137 44 64 44H10C6.68629 44 4 46.6863 4 50V64C4 67.3137 6.68629 70 10 70H64Z" fill="#E3E7F5"/>
<rect x="37" y="55" width="14" height="4" rx="1" fill="#D3D8EA"/>
<circle cx="16" cy="25" r="3" fill="#D3D8EA"/>
<circle cx="16" cy="57" r="3" fill="#D3D8EA"/>
<circle cx="26.5" cy="25" r="3" fill="#D3D8EA"/>
<circle cx="26.5" cy="57" r="3" fill="#D3D8EA"/>
<circle cx="64" cy="57" r="12" stroke="#0066FF" stroke-width="3.5"/>
<path fill-rule="evenodd" clip-rule="evenodd" d="M62.548 50C62.1435 50 61.8237 50.3425 61.8513 50.7461L62.2361 56.3681C62.2388 56.4083 62.2451 56.4483 62.2547 56.4875L62.9893 59.4687C63.0662 59.7807 63.346 60 63.6674 60H64.333C64.6544 60 64.9342 59.7807 65.0111 59.4687L65.7457 56.4875C65.7554 56.4483 65.7616 56.4083 65.7644 56.3681L66.1491 50.7461C66.1768 50.3425 65.8569 50 65.4524 50H62.548ZM63.1978 60.9961C62.8121 60.9961 62.4994 61.3088 62.4994 61.6945V63.2977C62.4994 63.6834 62.8121 63.9961 63.1978 63.9961H64.8052C65.1909 63.9961 65.5036 63.6834 65.5036 63.2977V61.6945C65.5036 61.3088 65.1909 60.9961 64.8052 60.9961H63.1978Z" fill="#0066FF"/>
<rect x="37" y="23" width="23" height="4" rx="1" fill="#D3D8EA"/>
</svg>

<svg width="80" height="80" viewBox="0 0 80 80" fill="none" xmlns="http://www.w3.org/2000/svg"><path fill-rule="evenodd" clip-rule="evenodd" d="M64 37.996a6 6 0 0 0 6-6v-14a6 6 0 0 0-6-6H10a6 6 0 0 0-6 6v14a6 6 0 0 0 6 6h54zM64 70a6 6 0 0 0 6-6V50a6 6 0 0 0-6-6H10a6 6 0 0 0-6 6v14a6 6 0 0 0 6 6h54z" fill="#E3E7F5"/><rect x="37" y="55" width="14" height="4" rx="1" fill="#D3D8EA"/><circle cx="16" cy="25" r="3" fill="#D3D8EA"/><circle cx="16" cy="57" r="3" fill="#D3D8EA"/><circle cx="26.5" cy="25" r="3" fill="#D3D8EA"/><circle cx="26.5" cy="57" r="3" fill="#D3D8EA"/><circle cx="64" cy="57" r="12" stroke="#06F" stroke-width="3.5"/><path fill-rule="evenodd" clip-rule="evenodd" d="M62.548 50a.698.698 0 0 0-.697.746l.385 5.622a.7.7 0 0 0 .019.12l.734 2.98a.698.698 0 0 0 .678.532h.666c.321 0 .601-.22.678-.531l.735-2.982a.7.7 0 0 0 .018-.119l.385-5.622a.698.698 0 0 0-.697-.746h-2.904zm.65 10.996a.698.698 0 0 0-.699.698v1.604c0 .385.313.698.699.698h1.607a.698.698 0 0 0 .699-.698v-1.604a.698.698 0 0 0-.699-.698h-1.607z" fill="#06F"/><rect x="37" y="23" width="23" height="4" rx="1" fill="#D3D8EA"/></svg>
